!!!!SEGMENT: Distler_Jahrkreis_28_Was-mein-Gott-will-das-gscheh-allzeit.krn
!!!COM: Distler, Hugo
!!!CDT: 1908-1942
!!!OPR@@DE: Der Jahrkreis
!!!OPR@EN: The Year Cycle
!!!OTL@@DE: Was mein Gott will, das g'scheh allzeit
!!!OTL@EN: What my God will be done always
!!!OPS: 5
!!!ONM: 28
**kern	**text	**kern	**text	**kern	**text
*part3	*part3	*part2	*part2	*part1	*part1
*staff3	*staff3	*staff2	*staff2	*staff1	*staff1
*Ibass	*	*Ialto	*	*Isoprn	*
*clefF4	*	*clefG2	*	*clefG2	*
*k[b-e-]	*	*k[b-e-]	*	*k[b-e-]	*
*MM120	*	*MM120	*	*MM120	*
*M4/4	*	*M4/4	*	*M4/4	*
4r	.	4d	Was	4r	.
=1	=1	=1	=1	=1	=1
1r	.	4f	mein	4r	.
.	.	4g	Gott	4a	Was
.	.	4f	will,	4cc	mein
.	.	([4b-	das	4dd	Gott
=2	=2	=2	=2	=2	=2
4r	.	8b-L]	.	4cc	will,
.	.	8aJ	.	.	.
4D	Was	4f)	.	(4.ff	das
4F	mein	4g	g'scheh'	.	.
.	.	.	.	8een	.
4G	Gott	4g	all-	4cc)	.
=3	=3	=3	=3	=3	=3
4F	will,	4a,	zeit,	4dd	g'scheh'
4B-	das	4f	sein	4dd	all-
4B-	g'scheh'	4e-	Will',	2cc	zeit,
4A	all-	4d	der	.	.
!!LO:LB:g=original
=4	=4	=4	=4	=4	=4
2B-	zeit,	(4g	ist	4r	.
.	.	4.f	.	4dd	sein
4r	.	.	.	4cc	Will',
.	.	8fL	.	.	.
4B-	sein	8g	.	4b-	der
.	.	8aJ	.	.	.
=5	=5	=5	=5	=5	=5
4A	Will',	4.b-	.	(2.ee-	ist
4G	der	.	.	.	.
.	.	8a	.	.	.
2c	ist	4g	.	.	.
.	.	[4a	.	8ddL	.
.	.	.	.	8cc	.
=6	=6	=6	=6	=6	=6
4B-	der	8aL]	.	8dd	.
.	.	8gJ	.	8ee-J	.
(2A	be-	4f)	.	4.ff	.
.	.	4d	der	.	.
.	.	.	.	8ee-	.
[4G	.	([4g	be-	4dd)	.
=7	=7	=7	=7	=7	=7
4G]	.	4g]	.	4ee-	der
8FL	.	8aL	.	(4.cc	be-
8E-J	.	8gJ	.	.	.
2F)	.	2a)	.	.	.
.	.	.	.	8b-	.
.	.	.	.	4cc)	.
=8	=8	=8	=8	=8	=8
1G	ste;	1bn	ste;	1dd	ste;
!!LO:LB:g=original
=9:|!	=9	=9:|!	=9	=9:|!	=9
*M3/4	*	*M3/4	*	*M3/4	*
2.r	.	2g	Er	4g	Er
.	.	.	.	4g	hilft
.	.	4g	hilft	4g	aus
=10	=10	=10	=10	=10	=10
2.r	.	4f	aus	2a	Not,
.	.	2d	Not,	.	.
.	.	.	.	4g	der
=11	=11	=11	=11	=11	=11
2.r	.	4d	der	4f	from-
.	.	4d	from-	2en	me
.	.	4c	me	.	.
=12	=12	=12	=12	=12	=12
*M4/4	*	*M4/4	*	*M4/4	*
4r	.	2d	Gott,	2f	Gott,
4F	und	.	.	.	.
4G	zuech-	4r	.	2r	.
4A	ti-	4c	und	.	.
=13	=13	=13	=13	=13	=13
2B-	get	(4d	zuech-	2r	.
.	.	4en)	.	.	.
2A	mit	2f	ti-	4r	.
.	.	.	.	4f	und
!!LO:LB:g=original
=14	=14	=14	=14	=14	=14
[1G	Ma-	4en	get	4g	zuech-
.	.	4d	mit	4a	ti-
.	.	(4.g	Ma-	4b-	get
.	.	.	.	4a	mit
.	.	8fL	.	.	.
=15	=15	=15	=15	=15	=15
2G]	.	8en	.	2g	Ma-
.	.	8dJ	.	.	.
.	.	4e)	.	.	.
2D;	ssen.	4f#;	ssen.	2a;	ssen.
.	.	4d	Wer	.	.
=16	=16	=16	=16	=16	=16
1r	.	4fn	Gott	4r	.
.	.	4g	ver-	4a	Wer
.	.	4f	traut,	4cc	Gott
.	.	([4b-	fest	4dd	ver-
=17	=17	=17	=17	=17	=17
4r	.	8b-L]	.	4cc	traut,
.	.	8aJ	.	.	fest
4D	Wer	4f)	.	(4.ff	.
4F	Gott	4g	auf	.	.
.	.	.	.	8een	.
4G	ver-	4g	ihn	4cc)	.
=18	=18	=18	=18	=18	=18
4F	traut,	4a,	baut,	4dd	auf
4B-	fest	4f	den	4dd	ihn
4B-	auf	4e-	will	2cc	baut,
4A	ihn	4d	er	.	.
!!LO:LB:g=original
=19	=19	=19	=19	=19	=19
2B-	baut,	(4g	nicht	4r	.
.	.	4.f	.	4dd	den
4r	.	.	.	4cc	will
.	.	8fL	.	.	.
4B-	den	8g	.	4b-	er
.	.	8aJ	.	.	.
=20	=20	=20	=20	=20	=20
4A	will	4.b-	.	(2.ee-	nicht
4G	er	.	.	.	.
.	.	8a	.	.	.
2c	nicht	4g	.	.	.
.	.	[4a	.	8ddL	.
.	.	.	.	8cc	.
=21	=21	=21	=21	=21	=21
4B-	ver-	8aL]	.	8dd	.
.	.	8gJ	.	8ee-J	.
(2A	las-	4f)	.	4.ff	.
.	.	4d	ver-	.	.
.	.	.	.	8ee-	.
[4G	.	([4g	las-	4dd)	.
=22	=22	=22	=22	=22	=22
4G]	.	4g]	.	4ee-	ver-
8FL	.	8aL	.	(4.cc	las-
8E-J	.	8gJ	.	.	.
2F)	.	2a)	.	.	.
.	.	.	.	8b-	.
.	.	.	.	4cc)	.
=23	=23	=23	=23	=23	=23
1G	sen.	1bn	sen.	1dd	sen.
==	==	==	==	==	==
*-	*-	*-	*-	*-	*-
!!!YOR: Bärenreiter-Ausgabe 676
!!!YOY: 1933
!!!EFL: 28/52
!!!URL-pdf: https://imslp.eu/files/imglnks/euimg/7/7d/IMSLP834545-PMLP518834-5-jahrkreis-EA--original-paper-600dpi.pdf#page=52 First edition, Kassel: Bärenreiter, 1933. Plate BA 676.
!!!URL-imslp: https://imslp.org/wiki/Der_Jahrkreis,_Op.5_(Distler,_Hugo)#IMSLP834545
!!!system-decoration: [(s1,s2,s3)]
!!!ENC: Lucas Hofmann
!!!END: 2023/11/10
!!!title: @{OPR@@DE}, Op. @{OPS}, Nr. @{ONM}. @{OTL@@DE}
